Dominus_Dark_Funeral/scalable/apps/software-properties.svg

<?xml version="1.0" encoding="UTF-8" standalone="no"?><svg xmlns:dc="http://purl.org/dc/elements/1.1/" xmlns:cc="http://creativecommons.org/ns#" xmlns:rdf="http://www.w3.org/1999/02/22-rdf-syntax-ns#" xmlns="http://www.w3.org/2000/svg" xmlns:xlink="http://www.w3.org/1999/xlink" width="48" height="48" viewBox="0 0 12.7 12.7"><metadata><rdf:RDF><cc:Work><dc:format>image/svg+xml</dc:format><dc:type rdf:resource="http://purl.org/dc/dcmitype/StillImage"/><dc:title/></cc:Work></rdf:RDF></metadata><defs><linearGradient id="f" x1="44.99" x2="3.01" y1="17.5" y2="17.5" gradientTransform="translate(2.4 1.674) scale(.16377)" gradientUnits="userSpaceOnUse" spreadMethod="reflect"><stop stop-color="#fff" stop-opacity="0" offset="0"/><stop stop-color="#fff" offset=".24"/><stop stop-color="#fff" offset=".77"/><stop stop-color="#fff" stop-opacity="0" offset="1"/></linearGradient><linearGradient id="c" x1="24.82" x2="25" y1="15.38" y2="37.28" gradientTransform="matrix(1.44914 0 0 2.1568 -70.795 -34.997)" gradientUnits="userSpaceOnUse"><stop stop-color="#eacfb0" offset="0"/><stop stop-color="#b09b77" offset=".373"/><stop stop-color="#e3cfa5" offset=".422"/><stop stop-color="#997b53" offset="1"/></linearGradient><radialGradient id="a" cx="6.35" cy="290.65" r="5.36" gradientTransform="matrix(1 0 0 1.1704 0 -49.52)" gradientUnits="userSpaceOnUse"><stop stop-color="#374837" offset="0"/><stop stop-color="#dbe3de" offset="1"/></radialGradient><radialGradient id="b" cx="6.35" cy="290.65" r="5.36" gradientTransform="matrix(1 0 0 1.1704 0 -49.52)" gradientUnits="userSpaceOnUse"><stop stop-color="#374837" offset="0"/><stop stop-color="#dbe3de" offset="1"/></radialGradient><linearGradient xlink:href="#c" id="e" gradientUnits="userSpaceOnUse" gradientTransform="matrix(.38342 0 0 .57065 -2.856 -9.26)" x1="24.82" y1="15.38" x2="25" y2="37.28"/><linearGradient id="d" x1="26" x2="26" y1="22" y2="8" gradientTransform="matrix(2.0937 0 0 3.47518 33.763 -28.064)" gradientUnits="userSpaceOnUse"><stop stop-color="#fff" offset="0"/><stop stop-color="#fff" offset=".72"/><stop stop-color="#fff" stop-opacity=".69" offset=".79"/><stop stop-color="#fff" stop-opacity="0" offset="1"/></linearGradient><linearGradient xlink:href="#d" id="g" gradientUnits="userSpaceOnUse" gradientTransform="matrix(.55396 0 0 .91947 -6.942 -7.425)" x1="26" y1="22" x2="26" y2="8"/><radialGradient id="j" cx="24.65" cy="18.94" r="8.62" fx="24.65" gradientTransform="matrix(.01154 .42777 -.29718 .00846 14.673 -2.565)" gradientUnits="userSpaceOnUse"><stop stop-color="#cee14b" offset="0"/><stop stop-color="#9db029" offset="1"/></radialGradient><radialGradient id="i" cx="7.92" cy="289.94" r="1.81" gradientTransform="matrix(1.649 0 0 1.65708 -4.257 -472.25)" gradientUnits="userSpaceOnUse"><stop stop-color="#d7e3f4" offset="0"/><stop stop-color="#08a" offset="1"/></radialGradient><filter id="h" x="-.06" y="-.06" width="1.12" height="1.12" color-interpolation-filters="sRGB"><feGaussianBlur stdDeviation=".09"/></filter></defs><path d="M88.193 45.621c-.415.328-.896.847-1.283 1.084-1.049.643-2.003.955-2.91.955s-1.861-.312-2.91-.955c-.387-.237-.868-.756-1.283-1.084v2.691h8.386v-2.69zM79.807-.313V.79C81.195.63 82.448.34 84 .34a25.512 25.512 0 0 1 1.777-.027 25.512 25.512 0 0 1 2.416.168v-.792h-8.386z" transform="scale(.26458)" opacity=".4" fill="url(#d)"/><path d="M6.82.093A6.75 6.75 0 0 0 6.35.1c-.77 0-1.465.075-2.081.222a5.935 5.935 0 0 0-.865.276c-.268.11-.517.237-.744.382a3.67 3.67 0 0 0-.297.216 3.67 3.67 0 0 0-.274.244 3.67 3.67 0 0 0-.248.27 3.67 3.67 0 0 0-.22.293 3.67 3.67 0 0 0-.189.315 3.67 3.67 0 0 0-.157.331 3.67 3.67 0 0 0-.123.346 3.67 3.67 0 0 0-.089.356 3.67 3.67 0 0 0-.052.363 3.67 3.67 0 0 0-.015.366A3.67 3.67 0 0 0 1 4.23c0 .478.096.995.248 1.515.152.52.359 1.042.58 1.527.445.97.947 1.793 1.182 2.158.54.85 1.13 1.61 1.65 2.16.34.35.642.608.92.778.277.17.53.252.77.252s.492-.082.77-.252c.277-.17.58-.428.92-.778.52-.55 1.11-1.31 1.65-2.16.235-.365.735-1.188 1.176-2.158.22-.485.427-1.007.578-1.527.15-.52.246-1.037.246-1.515a4.65 4.65 0 0 0-.106-1.008 3.752 3.752 0 0 0-.314-.887 3.416 3.416 0 0 0-.517-.752A3.6 3.6 0 0 0 10.04.98a6.75 6.75 0 0 0-.602-.305 6.75 6.75 0 0 0-.63-.244 6.75 6.75 0 0 0-.65-.178 6.75 6.75 0 0 0-.665-.114A6.75 6.75 0 0 0 6.82.093z" display="block" fill="url(#e)"/><path d="M2.97 4.544h6.71" opacity=".4" fill="none" stroke="url(#f)" stroke-width=".16" stroke-linecap="square"/><path d="M7.46.127a6.75 6.75 0 0 0-.64-.044 6.75 6.75 0 0 0-.47.007c-.41 0-.742.077-1.11.119V12.07c.11.086.238.224.34.286.278.17.53.253.77.253s.492-.083.77-.253c.102-.062.23-.2.34-.286z" opacity=".4" fill="url(#g)"/><path transform="matrix(1.649 0 0 1.649 -1.386 -1.032)" d="M6.349 4.53c-1 0-1.81.81-1.81 1.82 0 1 .8 1.82 1.8 1.82a1.82 1.82 0 0 0 0-3.64z" opacity=".41" filter="url(#h)"/><path d="M9.43 6.702c-1.65 0-2.969 1.336-2.969 3.001 0 1.65 1.32 3.001 2.968 3.001a3.001 3.001 0 0 0 0-6.002z" fill="url(#i)"/><path d="M8.374 10.396l-.099-.165-.165-.05-.082-.247-.215.033-.18-.148-.199.181v.033c-.066-.016-.148-.016-.198-.066l-.033-.115v-.149l-.132.017.033-.264h-.082l-.083.099-.065.033-.116-.066v-.297l.165-.115h.148l.017-.083.165.05.115.148.033-.264.198-.165.083-.198.164-.065.083-.132.181-.033.1-.165h-.265l.165-.083h.149l.181-.05.017-.082-.066-.066-.066-.016.016-.083-.05-.115-.131.05.016-.1-.165-.098-.099.23v.066l-.115.05-.082.165-.033-.149-.198-.082-.033-.115.264-.165.131-.116v-.148l-.066-.033h-.082l-.05.132-.115.016a3.133 3.133 0 0 0-1.055 2.061l.099.182.23.148.231.066.1.116.164.115h.083l.066.017v.033l-.1.23-.065.1.033.065-.066.182.198.379.198.165.099.132-.017.264.066.165-.066.28v.033c0 .033.346.23.38.214l.032-.033-.016-.066.082-.082.033-.1.149-.049.099-.28-.033-.082.082-.116.165-.033.082-.198v-.264l.116-.18.016-.199-.527-.28M9.825 6.8l-.33-.132-.362.05-.462.115-.083.099.28.198v.115l-.115.116.165.297.083-.066.132-.198a3.72 3.72 0 0 0 .544-.215l.148-.379m2.556 2.424l-.082.099-.165-.165h-.132l-.116-.132v.165l.1.083.065.082.1-.099.065.132v.132l-.099.115-.198.132-.131.149-.1-.116.05-.115-.082-.1-.165-.329-.132-.165-.033.05.05.181.098.115.182.479.33-.033v.099l-.132.33-.132.164-.1.215v.362l.034.149-.05.066-.132.066-.132.115.116.132-.149.132.033.083-.23.263h-.149l-.115.066h-.1v-.099l-.032-.214-.132-.396v-.28l.066-.132-.083-.165v-.214l-.099-.116.05-.181-.083-.116h-.165l-.032-.049-.165.099-.05-.082-.148.131-.28-.33-.116-.28.099-.165-.066-.066.132-.296.33-.38.165-.05.23-.032.149.05.198.214.082-.083.1-.016.197.066h.148l.1-.1.032-.065-.099-.066h-.165c-.049-.083-.082-.148-.148-.214l-.05.033-.032.164-.1-.115-.016-.132-.115-.082h-.066l.115.132-.05.115-.082.016.05-.115-.1-.05-.082-.098-.165.033-.033.05-.098.065-.066.148-.132.066-.066-.066h-.066v-.23l.148-.083h.116l-.033-.099-.083-.082.165-.033.066-.1.066-.115h.132l-.033-.099.082-.049v.099l.165.033.165-.132v-.066l.165-.115-.165.033V7.51l.066-.132h-.066l-.115.116-.033.066.033.099-.066.164-.083-.066-.082-.098-.132.098-.033-.214.214-.148v-.066l.132-.1.215-.049.148.05.264.05-.066.082h-.148l.164.165.1-.132.032-.066s.43.396.676.824c.248.445.363.957.363 1.072z" fill="url(#j)"/></svg>

<?xml version="1.0" encoding="UTF-8" standalone="no"?>
<svg
   xmlns:dc="http://purl.org/dc/elements/1.1/"
   xmlns:cc="http://creativecommons.org/ns#"
   xmlns:rdf="http://www.w3.org/1999/02/22-rdf-syntax-ns#"
   xmlns:svg="http://www.w3.org/2000/svg"
   xmlns="http://www.w3.org/2000/svg"
   xmlns:xlink="http://www.w3.org/1999/xlink"
   xmlns:sodipodi="http://sodipodi.sourceforge.net/DTD/sodipodi-0.dtd"
   xmlns:inkscape="http://www.inkscape.org/namespaces/inkscape"
   width="48"
   height="48"
   viewBox="0 0 12.7 12.7"
   version="1.1"
   id="svg72"
   sodipodi:docname="software-properties.svg"
   inkscape:version="0.92.4 (5da689c313, 2019-01-14)">
  <sodipodi:namedview
     pagecolor="#ffffff"
     bordercolor="#666666"
     borderopacity="1"
     objecttolerance="10"
     gridtolerance="10"
     guidetolerance="10"
     inkscape:pageopacity="0"
     inkscape:pageshadow="2"
     inkscape:window-width="1112"
     inkscape:window-height="480"
     id="namedview74"
     showgrid="false"
     inkscape:zoom="4.9166667"
     inkscape:cx="2.1355932"
     inkscape:cy="24"
     inkscape:window-x="0"
     inkscape:window-y="25"
     inkscape:window-maximized="0"
     inkscape:current-layer="svg72" />
  <metadata
     id="metadata2">
    <rdf:RDF>
      <cc:Work>
        <dc:format>image/svg+xml</dc:format>
        <dc:type
           rdf:resource="http://purl.org/dc/dcmitype/StillImage" />
        <dc:title></dc:title>
      </cc:Work>
    </rdf:RDF>
  </metadata>
  <defs
     id="defs56">
    <linearGradient
       id="f"
       x1="44.99"
       x2="3.01"
       y1="17.5"
       y2="17.5"
       gradientTransform="matrix(0.16377,0,0,0.16377,2.4,1.674)"
       gradientUnits="userSpaceOnUse"
       spreadMethod="reflect">
      <stop
         stop-color="#fff"
         stop-opacity="0"
         offset="0"
         id="stop4" />
      <stop
         stop-color="#fff"
         offset=".24"
         id="stop6" />
      <stop
         stop-color="#fff"
         offset=".77"
         id="stop8" />
      <stop
         stop-color="#fff"
         stop-opacity="0"
         offset="1"
         id="stop10" />
    </linearGradient>
    <linearGradient
       id="c"
       x1="24.82"
       x2="25"
       y1="15.38"
       y2="37.28"
       gradientTransform="matrix(1.44914 0 0 2.1568 -70.795 -34.997)"
       gradientUnits="userSpaceOnUse">
      <stop
         stop-color="#eacfb0"
         offset="0"
         id="stop13" />
      <stop
         stop-color="#b09b77"
         offset=".373"
         id="stop15" />
      <stop
         stop-color="#e3cfa5"
         offset=".422"
         id="stop17" />
      <stop
         stop-color="#997b53"
         offset="1"
         id="stop19" />
    </linearGradient>
    <radialGradient
       id="a"
       cx="6.35"
       cy="290.65"
       r="5.36"
       gradientTransform="matrix(1 0 0 1.1704 0 -49.52)"
       gradientUnits="userSpaceOnUse">
      <stop
         stop-color="#374837"
         offset="0"
         id="stop22" />
      <stop
         stop-color="#dbe3de"
         offset="1"
         id="stop24" />
    </radialGradient>
    <radialGradient
       id="b"
       cx="6.35"
       cy="290.65"
       r="5.36"
       gradientTransform="matrix(1 0 0 1.1704 0 -49.52)"
       gradientUnits="userSpaceOnUse">
      <stop
         stop-color="#374837"
         offset="0"
         id="stop27" />
      <stop
         stop-color="#dbe3de"
         offset="1"
         id="stop29" />
    </radialGradient>
    <linearGradient
       xlink:href="#c"
       id="e"
       gradientUnits="userSpaceOnUse"
       gradientTransform="matrix(0.38342,0,0,0.57065,-2.856,-9.26)"
       x1="24.82"
       y1="15.38"
       x2="25"
       y2="37.28" />
    <linearGradient
       id="d"
       x1="26"
       x2="26"
       y1="22"
       y2="8"
       gradientTransform="matrix(2.0937 0 0 3.47518 33.763 -28.064)"
       gradientUnits="userSpaceOnUse">
      <stop
         stop-color="#fff"
         offset="0"
         id="stop33" />
      <stop
         stop-color="#fff"
         offset=".72"
         id="stop35" />
      <stop
         stop-color="#fff"
         stop-opacity=".69"
         offset=".79"
         id="stop37" />
      <stop
         stop-color="#fff"
         stop-opacity="0"
         offset="1"
         id="stop39" />
    </linearGradient>
    <linearGradient
       xlink:href="#d"
       id="g"
       gradientUnits="userSpaceOnUse"
       gradientTransform="matrix(0.55396,0,0,0.91947,-6.942,-7.425)"
       x1="26"
       y1="22"
       x2="26"
       y2="8" />
    <radialGradient
       id="j"
       cx="24.65"
       cy="18.94"
       r="8.62"
       fx="24.65"
       gradientTransform="matrix(0.01154,0.42777,-0.29718,0.00846,14.673,-2.565)"
       gradientUnits="userSpaceOnUse">
      <stop
         stop-color="#cee14b"
         offset="0"
         id="stop43" />
      <stop
         stop-color="#9db029"
         offset="1"
         id="stop45" />
    </radialGradient>
    <radialGradient
       id="i"
       cx="7.92"
       cy="289.94"
       r="1.81"
       gradientTransform="matrix(1.649,0,0,1.65708,-4.257,-472.25)"
       gradientUnits="userSpaceOnUse">
      <stop
         stop-color="#d7e3f4"
         offset="0"
         id="stop48" />
      <stop
         stop-color="#08a"
         offset="1"
         id="stop50" />
    </radialGradient>
    <filter
       id="h"
       x="-.06"
       y="-.06"
       width="1.12"
       height="1.12"
       color-interpolation-filters="sRGB">
      <feGaussianBlur
         stdDeviation=".09"
         id="feGaussianBlur53" />
    </filter>
    <linearGradient
       inkscape:collect="always"
       xlink:href="#d"
       id="linearGradient881"
       gradientUnits="userSpaceOnUse"
       gradientTransform="matrix(0.55395115,0,0,0.91946312,8.9330146,-7.4251731)"
       x1="26"
       y1="22"
       x2="26"
       y2="8" />
  </defs>
  <path
     d="m 23.334104,12.070404 c -0.1098,0.08678 -0.237063,0.224099 -0.339456,0.286805 -0.277544,0.170125 -0.529954,0.252674 -0.769928,0.252674 -0.239974,0 -0.492383,-0.08255 -0.769927,-0.252674 -0.102393,-0.06271 -0.229656,-0.200023 -0.339457,-0.286805 v 0.711985 h 2.218768 v -0.71172 z M 21.115336,-0.08281354 V 0.2090182 c 0.367237,-0.0423328 0.698756,-0.119061 1.109384,-0.119061 a 6.749965,6.749965 0 0 1 0.470159,-0.0071437 6.749965,6.749965 0 0 1 0.639225,0.04444944 v -0.20954736 h -2.218768 z"
     id="path58"
     style="opacity:0.4;fill:url(#linearGradient881);stroke-width:0.26458001"
     inkscape:connector-curvature="0" />
  <path
     d="M 6.82,0.093 A 6.75,6.75 0 0 0 6.35,0.1 C 5.58,0.1 4.885,0.175 4.269,0.322 A 5.935,5.935 0 0 0 3.404,0.598 C 3.136,0.708 2.887,0.835 2.66,0.98 A 3.67,3.67 0 0 0 2.363,1.196 3.67,3.67 0 0 0 2.089,1.44 3.67,3.67 0 0 0 1.841,1.71 3.67,3.67 0 0 0 1.621,2.003 3.67,3.67 0 0 0 1.432,2.318 3.67,3.67 0 0 0 1.275,2.649 3.67,3.67 0 0 0 1.152,2.995 3.67,3.67 0 0 0 1.063,3.351 3.67,3.67 0 0 0 1.011,3.714 3.67,3.67 0 0 0 0.996,4.08 3.67,3.67 0 0 0 1,4.23 c 0,0.478 0.096,0.995 0.248,1.515 0.152,0.52 0.359,1.042 0.58,1.527 0.445,0.97 0.947,1.793 1.182,2.158 0.54,0.85 1.13,1.61 1.65,2.16 0.34,0.35 0.642,0.608 0.92,0.778 0.277,0.17 0.53,0.252 0.77,0.252 0.24,0 0.492,-0.082 0.77,-0.252 C 7.397,12.198 7.7,11.94 8.04,11.59 8.56,11.04 9.15,10.28 9.69,9.43 9.925,9.065 10.425,8.242 10.866,7.272 11.086,6.787 11.293,6.265 11.444,5.745 11.594,5.225 11.69,4.708 11.69,4.23 A 4.65,4.65 0 0 0 11.584,3.222 3.752,3.752 0 0 0 11.27,2.335 3.416,3.416 0 0 0 10.753,1.583 3.6,3.6 0 0 0 10.04,0.98 6.75,6.75 0 0 0 9.438,0.675 6.75,6.75 0 0 0 8.808,0.431 6.75,6.75 0 0 0 8.158,0.253 6.75,6.75 0 0 0 7.493,0.139 6.75,6.75 0 0 0 6.82,0.093 Z"
     display="block"
     id="path60"
     style="display:block;fill:url(#e)"
     inkscape:connector-curvature="0" />
  <path
     d="M 2.97,4.544 H 9.68"
     id="path62"
     style="opacity:0.4;fill:none;stroke:url(#f);stroke-width:0.16;stroke-linecap:square"
     inkscape:connector-curvature="0" />
  <path
     d="M 7.46,0.127 A 6.75,6.75 0 0 0 6.82,0.083 6.75,6.75 0 0 0 6.35,0.09 C 5.94,0.09 5.608,0.167 5.24,0.209 V 12.07 c 0.11,0.086 0.238,0.224 0.34,0.286 0.278,0.17 0.53,0.253 0.77,0.253 0.24,0 0.492,-0.083 0.77,-0.253 0.102,-0.062 0.23,-0.2 0.34,-0.286 z"
     id="path64"
     style="opacity:0.4;fill:url(#g)"
     inkscape:connector-curvature="0" />
  <path
     transform="matrix(1.649,0,0,1.649,-1.386,-1.032)"
     d="m 6.349,4.53 c -1,0 -1.81,0.81 -1.81,1.82 0,1 0.8,1.82 1.8,1.82 a 1.82,1.82 0 0 0 0,-3.64 z"
     id="path66"
     inkscape:connector-curvature="0"
     style="opacity:0.41000001;filter:url(#h)" />
  <path
     d="m 9.43,6.702 c -1.65,0 -2.969,1.336 -2.969,3.001 0,1.65 1.32,3.001 2.968,3.001 a 3.001,3.001 0 0 0 0,-6.002 z"
     id="path68"
     style="fill:url(#i)"
     inkscape:connector-curvature="0" />
  <path
     d="M 8.374,10.396 8.275,10.231 8.11,10.181 8.028,9.934 7.813,9.967 7.633,9.819 7.434,10 v 0.033 C 7.368,10.017 7.286,10.017 7.236,9.967 L 7.203,9.852 V 9.703 L 7.071,9.72 7.104,9.456 H 7.022 L 6.939,9.555 6.874,9.588 6.758,9.522 V 9.225 L 6.923,9.11 H 7.071 L 7.088,9.027 7.253,9.077 7.368,9.225 7.401,8.961 7.599,8.796 7.682,8.598 7.846,8.533 7.929,8.401 8.11,8.368 8.21,8.203 H 7.945 L 8.11,8.12 H 8.259 L 8.44,8.07 8.457,7.988 8.391,7.922 8.325,7.906 8.341,7.823 8.291,7.708 8.16,7.758 8.176,7.658 8.011,7.56 7.912,7.79 V 7.856 L 7.797,7.906 7.715,8.071 7.682,7.922 7.484,7.84 7.451,7.725 7.715,7.56 7.846,7.444 V 7.296 L 7.78,7.263 H 7.698 L 7.648,7.395 7.533,7.411 A 3.133,3.133 0 0 0 6.478,9.472 l 0.099,0.182 0.23,0.148 0.231,0.066 0.1,0.116 0.164,0.115 h 0.083 l 0.066,0.017 v 0.033 l -0.1,0.23 -0.065,0.1 0.033,0.065 -0.066,0.182 0.198,0.379 0.198,0.165 0.099,0.132 -0.017,0.264 0.066,0.165 -0.066,0.28 v 0.033 c 0,0.033 0.346,0.23 0.38,0.214 L 8.143,12.325 8.127,12.259 8.209,12.177 8.242,12.077 8.391,12.028 8.49,11.748 8.457,11.666 8.539,11.55 8.704,11.517 8.786,11.319 v -0.264 l 0.116,-0.18 0.016,-0.199 -0.527,-0.28 M 9.825,6.8 9.495,6.668 9.133,6.718 8.671,6.833 8.588,6.932 8.868,7.13 V 7.245 L 8.753,7.361 8.918,7.658 9.001,7.592 9.133,7.394 A 3.72,3.72 0 0 0 9.677,7.179 L 9.825,6.8 M 12.381,9.224 12.299,9.323 12.134,9.158 H 12.002 L 11.886,9.026 v 0.165 l 0.1,0.083 0.065,0.082 0.1,-0.099 0.065,0.132 v 0.132 l -0.099,0.115 -0.198,0.132 -0.131,0.149 -0.1,-0.116 0.05,-0.115 -0.082,-0.1 -0.165,-0.329 -0.132,-0.165 -0.033,0.05 0.05,0.181 0.098,0.115 0.182,0.479 0.33,-0.033 v 0.099 l -0.132,0.33 -0.132,0.164 -0.1,0.215 v 0.362 l 0.034,0.149 -0.05,0.066 -0.132,0.066 -0.132,0.115 0.116,0.132 -0.149,0.132 0.033,0.083 -0.23,0.263 h -0.149 l -0.115,0.066 h -0.1 v -0.099 l -0.032,-0.214 -0.132,-0.396 v -0.28 L 10.65,11.005 10.567,10.84 v -0.214 l -0.099,-0.116 0.05,-0.181 -0.083,-0.116 H 10.27 l -0.032,-0.049 -0.165,0.099 -0.05,-0.082 -0.1480003,0.131 -0.28,-0.33 -0.116,-0.28 0.099,-0.165 -0.066,-0.066 0.132,-0.296 0.33,-0.38 0.1650003,-0.05 0.23,-0.032 0.149,0.05 0.197999,0.214 0.082,-0.083 0.1,-0.016 0.197,0.066 h 0.148 l 0.1,-0.1 0.032,-0.065 -0.099,-0.066 h -0.165 c -0.049,-0.083 -0.082,-0.148 -0.148,-0.214 l -0.05,0.033 -0.032,0.164 -0.1,-0.115 -0.016,-0.132 -0.115,-0.082 h -0.066 l 0.115,0.132 -0.05,0.115 -0.082,0.016 0.05,-0.115 -0.1,-0.05 -0.082,-0.098 -0.165,0.033 -0.033,0.05 -0.098,0.065 -0.066,0.148 -0.1319996,0.066 -0.066,-0.066 h -0.066 v -0.23 l 0.148,-0.083 h 0.1159996 l -0.033,-0.099 -0.083,-0.082 0.1649996,-0.033 0.066,-0.1 0.066,-0.115 h 0.132 l -0.033,-0.099 0.082,-0.049 v 0.099 l 0.165,0.033 0.165,-0.132 V 7.707 l 0.165,-0.115 -0.165,0.033 V 7.51 l 0.066,-0.132 h -0.066 l -0.115,0.116 -0.033,0.066 0.033,0.099 -0.066,0.164 -0.083,-0.066 -0.082,-0.098 -0.132,0.098 -0.033,-0.214 0.214,-0.148 V 7.329 l 0.132,-0.1 0.215,-0.049 0.148,0.05 0.264,0.05 -0.066,0.082 h -0.148 l 0.164,0.165 0.1,-0.132 0.032,-0.066 c 0,0 0.43,0.396 0.676,0.824 0.248,0.445 0.363,0.957 0.363,1.072 z"
     id="path70"
     style="fill:url(#j)"
     inkscape:connector-curvature="0" />
</svg>
